X: 39815
T: There's A Man Here On Crutches
R: slip jig
M: 9/8
K: Gmajor
|:G2g f2g d3|A2B A2G FED|G2g f2g d2A|1 Bcd g2d A2G:|2 Bcd g2B d2c||
B2G E2G B2d|A2F d2A fed|B2e e2d B2A|BcB A2F G2E|
B2G E2G B2d|A2F d2A fed|e2d B2d e2A|d2B A2F GFE||

